src/shared/_assets/icons/check-check.svg

<svg xmlns="http://www.w3.org/2000/svg" fill="none" viewBox="0 0 22 13"><path fill="currentColor" d="M5.65 12.025 0 6.375l1.425-1.4 4.25 4.25 1.4 1.4zm5.65 0-5.65-5.65 1.4-1.425L11.3 9.2 20.5 0l1.4 1.425zm0-5.65-1.425-1.4 4.95-4.95 1.425 1.4z"/></svg>

<svg width="22" height="13" viewBox="0 0 22 13" fill="none" xmlns="http://www.w3.org/2000/svg">
<path d="M5.65 12.025L0 6.375L1.425 4.975L5.675 9.225L7.075 10.625L5.65 12.025ZM11.3 12.025L5.65 6.375L7.05 4.95L11.3 9.2L20.5 0L21.9 1.425L11.3 12.025ZM11.3 6.375L9.875 4.975L14.825 0.025L16.25 1.425L11.3 6.375Z" fill="#98C95C"/>
</svg>
